packages/foundations/assets/icons/functional/images/social/crown_28.svg

<svg width="28" height="28" viewBox="0 0 28 28" fill="none" xmlns="http://www.w3.org/2000/svg">
<g clip-path="url(#clip0_187_330)">
<path fill-rule="evenodd" clip-rule="evenodd" d="M23.6272 20.1255C24.076 20.1255 24.5001 20.4893 24.5022 21.0005C24.5041 21.438 24.5041 21.8755 24.5022 22.313C24.5022 23.4728 23.5724 24.5002 22.3147 24.5005C16.7737 24.502 11.232 24.502 5.68975 24.5005C4.52995 24.5005 3.50621 23.5519 3.50225 22.313C3.50085 21.8755 3.50085 21.438 3.50225 21.0005C3.50225 20.5173 3.894 20.1255 4.37725 20.1255C4.82598 20.1255 5.25008 20.4797 5.25225 21.0005C5.25407 21.438 5.25407 21.8755 5.25225 22.313C5.25225 22.5278 5.41182 22.7504 5.68975 22.7505C11.2291 22.7528 16.7708 22.7528 22.3147 22.7505C22.5295 22.7505 22.7509 22.5753 22.7522 22.313C22.7545 21.8755 22.7545 21.438 22.7522 21.0005C22.7522 20.5173 23.144 20.1255 23.6272 20.1255ZM19.2599 19.688C19.7432 19.688 20.1349 20.0798 20.1349 20.563C20.1349 21.0463 19.7432 21.438 19.2599 21.438C18.7767 21.438 18.3849 21.0463 18.3849 20.563C18.3849 20.0798 18.7767 19.688 19.2599 19.688ZM8.75994 19.688C9.24319 19.688 9.63494 20.0798 9.63494 20.563C9.63494 21.0463 9.24319 21.438 8.75994 21.438C8.27669 21.438 7.88494 21.0463 7.88494 20.563C7.88494 20.0798 8.27669 19.688 8.75994 19.688ZM14.0099 19.688C14.4932 19.688 14.8849 20.0798 14.8849 20.563C14.8849 21.0463 14.4932 21.438 14.0099 21.438C13.5267 21.438 13.1349 21.0463 13.1349 20.563C13.1349 20.0798 13.5267 19.688 14.0099 19.688ZM13.2602 3.91167C13.6037 3.36058 14.3516 3.36058 14.7443 3.91167C16.0503 5.99719 17.3541 8.08321 18.6555 10.1698L24.9135 6.25851C25.5019 5.89079 26.349 6.32668 26.2381 7.15703C25.7266 10.0064 25.2086 13.1472 24.6841 16.5793C24.504 17.5699 23.6354 18.3755 22.5319 18.3755C16.8455 18.3772 11.1591 18.3772 5.47262 18.3755C4.46578 18.3755 3.50225 17.666 3.32041 16.5793C2.80072 13.7305 2.2827 10.5898 1.76636 7.15742C1.63634 6.4423 2.4149 5.84475 3.09097 6.25887C5.17834 7.56129 7.26405 8.86463 9.34812 10.1689L13.2602 3.91167ZM14.0022 6.02663L10.3693 11.8393C10.1314 12.2198 9.64899 12.3544 9.25318 12.1666L9.16353 12.1175L3.84175 8.79163L5.04218 16.2663C5.07055 16.4223 5.17956 16.5464 5.32149 16.5986L5.39497 16.6186L5.47262 16.6255H22.5319C22.7169 16.6255 22.8787 16.5097 22.9416 16.3414L22.9623 16.2663L24.1627 8.78988L18.841 12.1175C18.4922 12.3355 18.0492 12.2777 17.7671 12.0029L17.6943 11.9227L17.6352 11.8393L14.0022 6.02663Z" fill="#1A1C1F"/>
</g>
<defs>
<clipPath id="clip0_187_330">
<rect width="28" height="28" fill="white"/>
</clipPath>
</defs>
</svg>

<svg xmlns="http://www.w3.org/2000/svg" width="28" height="28" fill="none"><g clip-path="url(#a)"><path fill="#1A1C1F" fill-rule="evenodd" d="M23.627 20.126a.88.88 0 0 1 .875.874q.003.656 0 1.313c0 1.16-.93 2.187-2.187 2.188H5.69a2.2 2.2 0 0 1-2.188-2.188v-1.312a.875.875 0 0 1 1.75 0q.003.655 0 1.312c0 .215.16.437.438.438q8.309.003 16.625 0a.44.44 0 0 0 .437-.438q.004-.656 0-1.312c0-.484.392-.876.875-.876m-4.367-.438a.875.875 0 1 1 0 1.75.875.875 0 0 1 0-1.75m-10.5 0a.875.875 0 1 1 0 1.75.875.875 0 0 1 0-1.75m5.25 0a.875.875 0 1 1 0 1.75.875.875 0 0 1 0-1.75m-.75-15.776c.344-.551 1.092-.551 1.484 0a4063 4063 0 0 1 3.912 6.258l6.258-3.911a.876.876 0 0 1 1.324.898q-.767 4.275-1.554 9.422a2.19 2.19 0 0 1-2.152 1.796q-8.53.003-17.06 0c-1.006 0-1.97-.709-2.152-1.796q-.78-4.274-1.554-9.422c-.13-.715.649-1.312 1.325-.898q3.13 1.953 6.257 3.91zm.742 2.115-3.633 5.812a.875.875 0 0 1-1.116.328l-.09-.05-5.321-3.325 1.2 7.474c.029.156.138.28.28.333l.073.02.078.006h17.059a.44.44 0 0 0 .41-.284l.02-.075 1.2-7.476-5.321 3.328a.875.875 0 0 1-1.074-.115l-.073-.08-.059-.084z" clip-rule="evenodd"/></g><defs><clipPath id="a"><path fill="#fff" d="M0 0h28v28H0z"/></clipPath></defs></svg>
